X:18180
T:Valse pour Michel (S. Delicq)
M:3/4
L:1/8
K:C
E|E2 c3E|c4-cE|F2c3F|c4-cc|c2~B2G2|c2~B2G2|\
E4AF|E6|A2FE DC|B,D EF AF|E2DC B,A,|F2E4|
B,3D ~CB,|B,3D ~CB,|A,3 C ~B,A,|A,4zE||\
E4A,C|E4 A,C|E3A, CE|A6|F2 (3EFE DC|D3E GE|D2G,2D2|
E4D/E/D/C/|B,6|C3A, B,C|C3A, B,C|C3A, B,C|A6|\
F2 (3EFE DC|B,6|EB ED CB,|A,4 (3DCB,|A,4-A,:|
